**kern
*staff2
*tb48
=1-
*clefG2
*k[f#c#]
*M3/8
4.A/ 4.d/ 4.f#/
.
.
.
.
.
.
.
.
.
.
.
.
.
.
.
.
.
=2
4.A;/ 4.e;/ 4.a;/
.
.
.
.
.
.
.
.
.
.
.
.
.
.
.
.
.
=3
4.r
.
.
.
.
.
.
.
.
.
.
.
.
.
.
.
.
.
=4
4d/ 4f#/ 4dd/
.
.
.
.
.
.
.
.
.
.
.
8d/ 8g/ 8b/
.
.
.
.
.
=5
4d/ 4f#/ 4a/
.
.
.
.
.
.
.
.
.
.
.
8F#/ 8c#/ 8g/
.
.
.
.
.
=6
!!linebreak:original
16A/LL
.
.
16d/
.
.
16f#/
.
.
16d/
.
.
16A/
.
.
16d/JJ
.
.
=7
16A/LL
.
.
16d/
.
.
16f#/
.
.
16d/
.
.
16A/
.
.
16d/JJ
.
.
=8
16B/LL
.
.
16f#/
.
.
16a/
.
.
16f#/
.
.
16B/
.
.
16f#/JJ
.
.
=9
16B/LL
.
.
16d#/
.
.
16a/
.
.
16d#/
.
.
16B/
.
.
16d#/JJ
.
.
=10
!!linebreak:original
4.B/ 4.e/ 4.g/
.
.
.
.
.
.
.
.
.
.
.
.
.
.
.
.
.
=11
4r
.
.
.
.
.
.
.
.
.
.
.
8r
.
.
.
.
.
=12
8B/ 8d#/ 8a/
.
.
.
.
.
4B/ 4e/ 4g/
.
.
.
.
.
.
.
.
.
.
.
=13
4r
.
.
.
.
.
.
.
.
.
.
.
8r
.
.
.
.
.
=14
!!linebreak:original
8F#/ 8c#/ 8g/
.
.
.
.
.
4A/ 4d/ 4f#/
.
.
.
.
.
.
.
.
.
.
.
=15
4r
.
.
.
.
.
.
.
.
.
.
.
8r
.
.
.
.
.
=16
4d/ 4g/ 4dd/
.
.
.
.
.
.
.
.
.
.
.
8d/ 8f#/
.
.
.
.
.
=17
!!linebreak:original
4r
.
.
.
.
.
.
.
.
.
.
.
8r
.
.
.
.
.
=18
4d/ 4g/ 4b/
.
.
.
.
.
.
.
.
.
.
.
8d;/ 8a;/
.
.
.
.
.
=19
4A/ 4d/ 4f#/
.
.
.
.
.
.
.
.
.
.
.
8E/ 8c#/ 8e/
.
.
.
.
.
=20
*^
4A/ 4d/	4dd/
.	.
.	.
.	.
.	.
.	.
.	.
.	.
.	.
.	.
.	.
.	.
*v	*v
8r
.
.
.
.
.
=21
!!linebreak:original
4A/ 4d/ 4f#/
.
.
.
.
.
.
.
.
.
.
.
8r
.
.
.
.
.
=22
4A/ 4d/ 4f#/
.
.
.
.
.
.
.
.
.
.
.
8r
.
.
.
.
.
=23
4A/ 4d/ 4f#/
.
.
.
.
.
.
.
.
.
.
.
8E/ 8c#/
.
.
.
.
.
=24
4E/ 4d/
.
.
.
.
.
.
.
.
.
.
.
8r
.
.
.
.
.
=25
!!linebreak:original
4.A/ 4.d/ 4.f#/
.
.
.
.
.
.
.
.
.
.
.
.
.
.
.
.
.
=26
4.A^;/ 4.e^;/ 4.a^;/
.
.
.
.
.
.
.
.
.
.
.
.
.
.
.
.
.
=27
4.r
.
.
.
.
.
.
.
.
.
.
.
.
.
.
.
.
.
=28
4d/ 4f#/ 4dd/
.
.
.
.
.
.
.
.
.
.
.
8d/ 8g/ 8b/
.
.
.
.
.
=29
4d/ 4f#/ 4a/
.
.
.
.
.
.
.
.
.
.
.
8F#/ 8c#/ 8g/
.
.
.
.
.
=30
!!linebreak:original
16A/LL
.
.
16d/
.
.
16f#/
.
.
16d/
.
.
16A/
.
.
16d/JJ
.
.
=31
16A/LL
.
.
16d/
.
.
16f#/
.
.
16d/
.
.
16A/
.
.
16d/JJ
.
.
=32
16B/LL
.
.
16f#/
.
.
16a/
.
.
16f#/
.
.
16B/
.
.
16f#/JJ
.
.
=33
16B/LL
.
.
16d#/
.
.
16a/
.
.
16d#/
.
.
16B/
.
.
16d#/JJ
.
.
=34
!!linebreak:original
4.B/ 4.e/ 4.g/
.
.
.
.
.
.
.
.
.
.
.
.
.
.
.
.
.
=35
4r
.
.
.
.
.
.
.
.
.
.
.
8r
.
.
.
.
.
=36
8B/ 8d#/ 8a/
.
.
.
.
.
4B/ 4e/ 4g/
.
.
.
.
.
.
.
.
.
.
.
=37
4r
.
.
.
.
.
.
.
.
.
.
.
8r
.
.
.
.
.
=38
!!linebreak:original
8F#/ 8c#/ 8g/
.
.
.
.
.
4A/ 4d/ 4f#/
.
.
.
.
.
.
.
.
.
.
.
=39
4.d/ 4.g/ 4.dd/
.
.
.
.
.
.
.
.
.
.
.
.
.
.
.
.
.
=40
4.d/ 4.f#/
.
.
.
.
.
.
.
.
.
.
.
.
.
.
.
.
.
=41
!!linebreak:original
4.d/ 4.g/ 4.b/
.
.
.
.
.
.
.
.
.
.
.
.
.
.
.
.
.
=42
4.d^;/ 4.f#^;/ 4.a^;/
.
.
.
.
.
.
.
.
.
.
.
.
.
.
.
.
.
=43
4A/ 4d/ 4f#/
.
.
.
.
.
.
.
.
.
.
.
8E/ 8c#/ 8e/
.
.
.
.
.
=44
*^
4A/ 4d/	4dd/
.	.
.	.
.	.
.	.
.	.
.	.
.	.
.	.
.	.
.	.
.	.
*v	*v
8r
.
.
.
.
.
==
*-
